!!!COM: Morley, Thomas
!!!OTL: Nolo Mortem Peccatoris
!!!YOR: from 'Collected Motets' edited by H.K. Andrews & Thurston Dart, pp.16-21
!!!YOO: Stainer & Bell (London)
!!!YOY: 1959
!!!ONB: This work is scored for ATTB rather than SATB.
!!!ONB: The lyrics alternate between Latin and English.
**kern	**kern	**kern	**kern
*ICvox	*ICvox	*ICvox	*ICvox
! Basis	! Tenor	! Tenor	! Altus
*M2/2	*M2/2	*M2/2	*M2/2
=1	=1	=1	=1
1r	2r	2r	2.d
.	[2D	2A	.
.	.	.	4d
=2	=2	=2	=2
1r	4D]	4A	2f
.	4D	2d	.
.	4A	.	4e
.	4A	4c	[4f
=3	=3	=3	=3
2r	4B-	4d	4f]
.	4B-	2d	4g
[2AA	[2A	.	2a
.	.	{8c#	.
.	.	8Bn}	.
=4	=4	=4	=4
4AA]	2A]	2c#	4e
4AA	.	.	2a
2BB	2D	4r	.
.	.	4d	4g
=5	=5	=5	=5
4AA	4r	4c	4a
{4.D	4A	{4d	4f
.	{8F	2f}	4b-
8E}	8G	.	.
4F	4A}	.	4a
=6	=6	=6	=6
2G	2B-	2.d	2g
4D	2A	.	4f
[4F	.	4c	[4a
=7	=7	=7	=7
4F]	4c	4f	4a]
4C	4c	4e	4g
4D	4A	4d	4f
4AA	4A	[4c	4e
=8	=8	=8	=8
4C	4G	4c]	8e
.	.	.	8d
4BB	4D	4G	{2d
2AA	2E	2A	.
.	.	.	4c#}
=9	=9	=9	=9
1D;	1F#;	1A;	1d;
!! Interposed double bar.
=10	=10	=10	=10
2D	2d	2f	2a
4D	4d	4f	4a
4D	4d	4f	4a
=11	=11	=11	=11
4A	4c#	4e	4a
4F	4d	4f	4a
4G	4d	4e	4g
4A	4c#	4e	4e
=12	=12	=12	=12
1D	4d	2d	2f#
.	4A	.	.
.	4Fn	4r	2r
.	4D	4d	.
=13	=13	=13	=13
1r	4A	4c	1r
.	4c	4A	.
.	4B	4d	.
.	4G	4g	.
=14	=14	=14	=14
4r	4A	4f	2r
4D	4Bn	4f	.
4C	4c	2e	4r
4AA	4c	.	4a
=15	=15	=15	=15
4D	4d	4r	4f
4F	4d	4d	4d
4E	4e	4d	4g
4E	4e	4c#	4ccn
=16	=16	=16	=16
4D	4f	4d	4b-
4C	4e	4a	{2a
4BB-	4d	4d	.
4BB-	4d	4d	4g}
=17	=17	=17	=17
2AA	2c#	2e	4a
.	.	.	4e
4r	4r	4r	4f
4AA	4cn	4e	4a
=18	=18	=18	=18
4BB-	4B-	4d	4g
4D	4A	4d	4f
4C	[2c	4e	[2cc
4AA	.	4f	.
=19	=19	=19	=19
4C	4c]	4e	4cc]
4D	4F	{2f	4bn
2C	4G	.	4.cc
.	4G	4e}	.
.	.	.	8b-
=20	=20	=20	=20
4r	4F	4f	4a
4F	4c	4f	4a
4.C	4c	4.e	4.g
.	4G	.	.
8GG	.	8d	8b-
=21	=21	=21	=21
4AA	4E	4c#	4a
4BB-	4D	4d	4g
4AA	4E	4d	4.a
4AA	4E	4c#	.
.	.	.	8g
=22	=22	=22	=22
2D	2D	2d	4f#
.	.	.	4a
4r	4r	4r	4fn
4D	4A	4d	4d
=23	=23	=23	=23
4BB-	4G	4d	2b-
4GG	4d	4g	.
4D	4d	4f	4a
4C	4A	4e	[4a
=24	=24	=24	=24
4BB-	4D	4d	4a]
4BB-	4D	4d	4g
2AA	2E	2c#	4a
.	.	.	4e
=25	=25	=25	=25
4r	4r	4r	4f
4AA	4E	4cn	4a
4BB-	4G	4d	4d
4D	4F	4A	4f
=26	=26	=26	=26
4GG	4G	4B-	4e
8BB-	8D	8G	{2d
8BB-	8D	8G	.
2AA	2E	2A	.
.	.	.	4c#}
=27	=27	=27	=27
1D;	1F#;	1A;	1d;
!! Interposed double bar.
=28	=28	=28	=28
1r	1r	2r	2d
.	.	2A	4a
.	.	.	4cc
=29	=29	=29	=29
1r	2r	4d	4b-
.	.	4f	4a
.	4r	4e	4g
.	4D	4d	4f
=30	=30	=30	=30
2AA	4A	4d	2e
.	4cn	4c#	.
4D	4B-	2d	2r
4F	4A	.	.
=31	=31	=31	=31
4E	4G	4r	2r
4D	4F	4d	.
4D	2E	4e	4r
4C#	.	4g	4e
=32	=32	=32	=32
4D	2r	4f	4a
4AA	.	4e	4cc
4D	4r	4f	4bn
4F	4D	4d	4a
=33	=33	=33	=33
4E	4G	4e	2.g
4C	4c	4e	.
2D	4Bn	4.d	.
.	4A	.	4f
.	.	8c	.
=34	=34	=34	=34
2E	4A	2Bn	2e
.	4G#	.	.
2AA	2A	4r	4r
.	.	4c#	4e
=35	=35	=35	=35
2r	2r	4d	4f
.	.	4e	4g
4r	4r	4f	2a
4AA	4c	4f	.
=36	=36	=36	=36
4BB-	4B-	4d	4g
4C	4G	4e	2cc
2D	2F	2f	.
.	.	.	4bn
=37	=37	=37	=37
4C	4G	4e	2cc
2F	2A	4f	.
.	.	2c	2r
4E	4G	.	.
=38	=38	=38	=38
2F	2A	2c	4r
.	.	.	4a
4r	4r	4r	4cc
4D	4d	4f	4b-
=39	=39	=39	=39
4F	4c	4f	4a
4C	4c	4e	4g
4D	4A	4d	4f
4AA	4A	[4c	[{4e
=40	=40	=40	=40
4C	4G	8c]	8e]
.	.	8B-	8d
4BB-	4D	4G	2d
2AA	2E	2A	.
.	.	.	4c#}
=41	=41	=41	=41
4D	4F#	4A	4d
4D	4d	4fn	4a
4.F	4.c	4.f	4.a
8F	8c	8f	8a
=42	=42	=42	=42
4B-	4B-	4d	4g
4A	4c	4f	4f
4G	4B-	4f	4b-
4G	4B-	4e	4b-
=43	=43	=43	=43
2F	2c	4f	2a
.	.	2f	.
2r	2r	.	2cc
.	.	4e	.
=44	=44	=44	=44
1r	1r	2d	4b-
.	.	.	4.a
.	.	4c	.
.	.	.	8a
.	.	[4B-	[4g
=45	=45	=45	=45
1r	2r	8B-]	8g]
.	.	{8A	8f
.	.	4F}	{2f
.	4r	2G	.
.	[4B-	.	4e}
=46	=46	=46	=46
4r	4B-]	2F	2f
2F	4A	.	.
.	2G	2r	2r
4E	.	.	.
=47	=47	=47	=47
4D	4F	1r	1r
4C	4A	.	.
4BB-	4G	.	.
4AA	[{4F	.	.
=48	=48	=48	=48
2GG	4F]	2r	4r
.	4E}	.	2b-
2FF	2F	4r	.
.	.	[4f	4a
=49	=49	=49	=49
2r	1r	4f]	2g
.	.	4e	.
4r	.	2d	2f
[4B-	.	.	.
=50	=50	=50	=50
4B-]	4r	2c	4g
4A	2f	.	4a
2G	.	4B-	2b-
.	4e	4B-	.
=51	=51	=51	=51
2F	4d	2f	2a
.	4c	.	.
4C	4c	4e	4g
4D	4A	[4d	4f
=52	=52	=52	=52
2AA	2A	4d]	2e
.	.	4c#	.
4D	4A	4d	4d
8GG	[4G	4B-	[4e
8GG	.	.	.
=53	=53	=53	=53
1AA	4G]	4A	8e]
.	.	.	8d
.	4F	4A	{2d
.	2E	2A	.
.	.	.	4c#}
=54	=54	=54	=54
1D;	1F#;	1A;	1d;
==	==	==	==
*-	*-	*-	*-
!!!ENC: Mark Laxton
!!!EDD: Mark Laxton
!!!YEC: Mark Laxton, 1987
!!!EMD: Reference records added by D. Huron, 2001
!!!EEV: 1.1
